X: 03020
T: CHELSEA HOUSE
C: Bob McQuillen 5 Sept 76
B: Bob's Note Book 03 #20
%R: jig
%D:1976
Z: 2020 John Chambers <jc:trillian.mit.edu>
M: 6/8
L: 1/8
K: D
A \
| FAA dAA | fef dAA | dBd dAd | fed e2A |\
| FAA dAA | fef dAA | dBd Adf | edc d2 :|
|: A \
| def afd | bgb afd | def afd | def e2A |\
| def afd | bgb afd | Bdf Agf | edc d2 :|
%%begintext align
%% With love to Carol & Bill and
%% the Chelsea House Folklore
%% Center in W. Brattleboro, Vt.
%%endtext

%%sep 1 1 500

%%sep 1 1 500

